X: 93
M:2/4
L:1/16
K:Gm
vGA|BABc dcdf|gfga faba|fdbf fdcd|BAGF GFDF|
.G2(GA) BABG|.F2(FG) AGFD|GABc dcBA|B2G2G2:|
|:ug2|gfdf gabg|gfdf gfdf|BABc dcde|fcdB AGFD|


